images/icon-team-builder.svg

<svg xmlns="http://www.w3.org/2000/svg" width="64" height="64"><g fill="none"><path fill="#EFEFF4" d="M64 14.454v41.788H0V14.454l3.75-3.787h56.5z"/><path fill="#DADAE5" d="M64 14.454v41.788H32V10.667h28.25z"/><path fill="#474F54" d="M0 0h64v15.515H0z"/><path fill="#32393F" d="M32 0h32v15.515H32z"/><g fill="#FF637B"><path d="M7.758 5.818h3.685v3.879H7.758zM15.128 5.818h3.685v3.879h-3.685zM22.497 5.818h3.685v3.879h-3.685z"/></g><path fill="#FF637B" d="M45.576 42.245V64H34.355v-3.71h-3.74V64H19.394V42.245l11.37-9.275h3.105z"/><path fill="#DADAE5" d="M11.636 22.303h41.697v3.879H11.636z"/><path fill="#C9C9D3" d="M32 22.303h20.364v3.879H32z"/><path fill="#E63950" d="M45.576 42.245V64H33.939v-3.71H32V32.97h1.435z"/><path fill="#EFEFF4" d="M30.061 45.576h3.878v3.879h-3.878z"/><path fill="#DADAE5" d="M32 45.576h1.939v3.879H32z"/><path fill="#676E74" d="M50.424 45.779l-2.452 2.706-15.487-13.526-15.488 13.526-2.452-2.706 17.94-15.718z"/><path fill="#474F54" d="M32 30.061l18.424 15.718-2.518 2.706L32 34.959z"/></g></svg>

<svg version="1.2" xmlns="http://www.w3.org/2000/svg" viewBox="0 0 64 64" width="64" height="64">
	<style>
		.s0 { fill: #efeff4 } 
		.s1 { fill: #dadae5 } 
		.s2 { fill: #474f54 } 
		.s3 { fill: #32393f } 
		.s4 { fill: #ff637b } 
		.s5 { fill: #c9c9d3 } 
		.s6 { fill: #676e74 } 
	</style>
	<g>
		<path class="s0" d="m64 14.45v41.79h-64v-41.79l3.75-3.78h56.5z"/>
		<path class="s1" d="m64 14.45v41.79h-32v-45.57h28.25z"/>
		<path class="s2" d="m0 0h64v15.52h-64z"/>
		<path class="s3" d="m32 0h32v15.52h-32z"/>
		<g>
			<path class="s4" d="m7.76 5.82h3.68v3.88h-3.68zm7.37 0h3.68v3.88h-3.68zm7.37 0h3.68v3.87h-3.68z"/>
		</g>
		<path class="s1" d="m11.64 22.3h41.69v3.88h-41.69z"/>
		<path class="s5" d="m32 22.3h20.36v3.88h-20.36z"/>
		<path class="s6" d="m121.42 36.78l-2.45 2.71-15.49-13.53-15.48 13.52-2.45-2.7 17.93-15.72z"/>
		<path class="s2" d="m73 42.06l18.42 15.72-2.51 2.7-15.91-13.52z"/>
	</g>
</svg>
